icons/edit-box-line.svg

<svg viewBox="0 0 24 24" fill="currentColor" xmlns="http://www.w3.org/2000/svg">
    <path d="M16.7574 2.99677L14.7574 4.99677H5V18.9968H19V9.23941L21 7.23941V19.9968C21 20.5491 20.5523 20.9968 20 20.9968H4C3.44772 20.9968 3 20.5491 3 19.9968V3.99677C3 3.44448 3.44772 2.99677 4 2.99677H16.7574ZM20.4853 2.09727L21.8995 3.51149L12.7071 12.7039L11.2954 12.7063L11.2929 11.2897L20.4853 2.09727Z"/>
</svg>

<svg xmlns="http://www.w3.org/2000/svg" viewBox="0 0 24 24">
    <g>
        <path fill="none" d="M0 0h24v24H0z"/>
        <path d="M16.757 3l-2 2H5v14h14V9.243l2-2V20a1 1 0 0 1-1 1H4a1 1 0 0 1-1-1V4a1 1 0 0 1 1-1h12.757zm3.728-.9L21.9 3.516l-9.192 9.192-1.412.003-.002-1.417L20.485 2.1z"/>
    </g>
</svg>
